X: 665
P: Longways for as many as will
M: C|
L: 1/8
K: G
V: 1
|:\
|:\
g2d2 d2ef | g2d2 d2ef | g2d2 edcB | A6 D2 |\
V: 2 clef=bass middle=d
|:\
g4 G4 | g4 G4 | d4 D4 | d4 D4 |\
g4 G4 | g4 G4 | g2c'2 d'2d2 | g2d2 B2G2 :|\
|:\
g4 G4 | g2d2 B2G2 |
g2d2 B2G2 | g2d2 B2d2 |\
g4 b2c'2 | g4 b2c'2 | b2g2 c'4 | d'2a2 f2d2 |\
d4 z4 | d4 z4 | g2c2 d2D2 | g2d2 B2G2 :|

